X: 1977
T: We Will Roll The Old Chariot Along
B: australian traditional tunes wiki
M:4/4
L:1/8
R: Quickstep
Q: 1/4=100
K:C
V:1 
||"C"EFG3EG2|EF GE GEC2|"G7"DEF3DF2|F2GE GFE2|
"C"EFG3EG2|EF GE GEC2|"G7"DEF2E2D2|"C"G2C4z2||
"C"EF GG EFG2|EF GE GEC2|"G7"DE FF DEF2|F2GE GFE2|
"C"EF GG EFG2|EF GE GEC2|"G7"DEF2E2D2|"C"G2C4z2||
% abcbook-tune_id 6342d5befcb492e177234bfb


% abcbook-boost 0
% abcbook-tablature 
% abcbook-transpose 
% abcbook-lastupdated 1665324491996
% abcbook-soundfonts 
% abcbook-repeats 1
% NFF Book 2010

